;FLAVOR:UltiGCode
;TIME:15808
;MATERIAL:19529
;MATERIAL2:0
;NOZZLE_DIAMETER:0.000000
;NOZZLE_DIAMETER2:0.000000

;Layer count: 598
;LAYER:0
M107
G0 F9000 X101.298 Y99.797 Z0.300
;TYPE:SKIRT
G1 F1200 X101.298 Y123.203 E2.80872
G1 X121.703 Y123.203 E5.25732
G1 X121.703 Y99.797 E8.06604
G1 X101.298 Y99.797 E10.51464
G0 F9000 X100.898 Y99.397
G1 F1200 X100.898 Y123.603 E13.41936
G1 X122.103 Y123.603 E15.96396
G1 X122.103 Y99.397 E18.86868
G1 X100.898 Y99.397 E21.41328
G0 F9000 X100.498 Y98.997
G1 F1200 X100.498 Y124.003 E24.41400
G1 X122.503 Y124.003 E27.05460
G1 X122.503 Y98.997 E30.05532
G1 X100.498 Y98.997 E32.69592
G0 F9000 X100.098 Y98.597
G1 F1200 X100.098 Y124.403 E35.79264
G1 X122.903 Y124.403 E38.52924
G1 X122.903 Y98.597 E41.62596
G1 X100.098 Y98.597 E44.36256
G0 F9000 X99.698 Y98.197
G1 F1200 X99.698 Y124.803 E47.55528
G1 X123.303 Y124.803 E50.38788
G1 X123.303 Y98.197 E53.58060
G1 X99.698 Y98.197 E56.41320
G0 F9000 X99.298 Y97.797
G1 F1200 X99.298 Y125.203 E59.70192
G1 X123.703 Y125.203 E62.63052
G1 X123.703 Y97.797 E65.91924
G1 X99.298 Y97.797 E68.84784
G0 F9000 X98.898 Y97.397
G1 F1200 X98.898 Y125.603 E72.23256
G1 X124.103 Y125.603 E75.25716
G1 X124.103 Y97.397 E78.64188
G1 X98.898 Y97.397 E81.66648
G0 F9000 X98.498 Y96.997
G1 F1200 X98.498 Y126.003 E85.14720
G1 X124.503 Y126.003 E88.26780
G1 X124.503 Y96.997 E91.74852
G1 X98.498 Y96.997 E94.86912
G0 F9000 X98.098 Y96.597
G1 F1200 X98.098 Y126.403 E98.44584
G1 X124.903 Y126.403 E101.66244
G1 X124.903 Y96.597 E105.23916
G1 X98.098 Y96.597 E108.45576
G0 F9000 X97.698 Y96.197
G1 F1200 X97.698 Y126.803 E112.12848
G1 X125.303 Y126.803 E115.44108
G1 X125.303 Y96.197 E119.11380
G1 X97.698 Y96.197 E122.42640
G0 F9000 X97.298 Y95.797
G1 F1200 X97.298 Y127.203 E126.19512
G1 X125.703 Y127.203 E129.60372
G1 X125.703 Y95.797 E133.37244
G1 X97.298 Y95.797 E136.78104
G0 F9000 X96.898 Y95.397
G1 F1200 X96.898 Y127.603 E140.64576
G1 X126.103 Y127.603 E144.15036
G1 X126.103 Y95.397 E148.01508
G1 X96.898 Y95.397 E151.51968
G0 F9000 X96.498 Y94.997
G1 F1200 X96.498 Y128.003 E155.48040
G1 X126.503 Y128.003 E159.08100
G1 X126.503 Y94.997 E163.04172
G1 X96.498 Y94.997 E166.64232
G0 F9000 X96.098 Y94.597
G1 F1200 X96.098 Y128.403 E170.69904
G1 X126.903 Y128.403 E174.39564
G1 X126.903 Y94.597 E178.45236
G1 X96.098 Y94.597 E182.14896
G0 F9000 X95.698 Y94.197
G1 F1200 X95.698 Y128.803 E186.30168
G1 X127.303 Y128.803 E190.09428
G1 X127.303 Y94.197 E194.24700
G1 X95.698 Y94.197 E198.03960
G0 F9000 X95.298 Y93.797
G1 F1200 X95.298 Y129.203 E202.28832
G1 X127.703 Y129.203 E206.17692
G1 X127.703 Y93.797 E210.42564
G1 X95.298 Y93.797 E214.31424
G0 F9000 X94.898 Y93.397
G1 F1200 X94.898 Y129.603 E218.65896
G1 X128.103 Y129.603 E222.64356
G1 X128.103 Y93.397 E226.98828
G1 X94.898 Y93.397 E230.97288
G0 F9000 X94.498 Y92.997
G1 F1200 X94.498 Y130.003 E235.41360
G1 X128.503 Y130.003 E239.49420
G1 X128.503 Y92.997 E243.93492
G1 X94.498 Y92.997 E248.01552
G0 F9000 X94.098 Y92.597
G1 F1200 X94.098 Y130.403 E252.55224
G1 X128.903 Y130.403 E256.72884
G1 X128.903 Y92.597 E261.26556
G1 X94.098 Y92.597 E265.44216
G0 F9000 X93.698 Y92.197
G1 F1200 X93.698 Y130.803 E270.07488
G1 X129.303 Y130.803 E274.34748
G1 X129.303 Y92.197 E278.98020
G1 X93.698 Y92.197 E283.25280
G0 F9000 X87.300 Y85.800
G1 F1200 X135.700 Y85.800 E289.06080
G1 X135.700 Y137.200 E295.22880
G1 X87.300 Y137.200 E301.03680
G1 X87.300 Y85.800 E307.20480
G0 F9000 X86.900 Y85.400
G1 F1200 X136.100 Y85.400 E313.10880
G1 X136.100 Y137.600 E319.37280
G1 X86.900 Y137.600 E325.27680
G1 X86.900 Y85.400 E331.54080
G0 F9000 X86.500 Y85.000
G1 F1200 X136.500 Y85.000 E337.54080
G1 X136.500 Y138.000 E343.90080
G1 X86.500 Y138.000 E349.90080
G1 X86.500 Y85.000 E356.26080
G0 F9000 X86.100 Y84.600
G1 F1200 X136.900 Y84.600 E362.35680
G1 X136.900 Y138.400 E368.81280
G1 X86.100 Y138.400 E374.90880
G1 X86.100 Y84.600 E381.36480
G0 F9000 X85.700 Y84.200
G1 F1200 X137.300 Y84.200 E387.55680
G1 X137.300 Y138.800 E394.10880
G1 X85.700 Y138.800 E400.30080
G1 X85.700 Y84.200 E406.85280
G0 F9000 X85.300 Y83.800
G1 F1200 X137.700 Y83.800 E413.14080
G1 X137.700 Y139.200 E419.78880
G1 X85.300 Y139.200 E426.07680
G1 X85.300 Y83.800 E432.72480
G0 F9000 X84.900 Y83.400
G1 F1200 X138.100 Y83.400 E439.10880
G1 X138.100 Y139.600 E445.85280
G1 X84.900 Y139.600 E452.23680
G1 X84.900 Y83.400 E458.98080
G0 F9000 X84.500 Y83.000
G1 F1200 X138.500 Y83.000 E465.46080
G1 X138.500 Y140.000 E472.30080
G1 X84.500 Y140.000 E478.78080
G1 X84.500 Y83.000 E485.62080
G0 F9000 X84.100 Y82.600
G1 F1200 X138.900 Y82.600 E492.19680
G1 X138.900 Y140.400 E499.13280
G1 X84.100 Y140.400 E505.70880
G1 X84.100 Y82.600 E512.64480
G0 F9000 X83.700 Y82.200
G1 F1200 X139.300 Y82.200 E519.31680
G1 X139.300 Y140.800 E526.34880
G1 X83.700 Y140.800 E533.02080
G1 X83.700 Y82.200 E540.05280
G0 F9000 X83.300 Y81.800
G1 F1200 X139.700 Y81.800 E546.82080
G1 X139.700 Y141.200 E553.94880
G1 X83.300 Y141.200 E560.71680
G1 X83.300 Y81.800 E567.84480
G0 F9000 X82.900 Y81.400
G1 F1200 X140.100 Y81.400 E574.70880
G1 X140.100 Y141.600 E581.93280
G1 X82.900 Y141.600 E588.79680
G1 X82.900 Y81.400 E596.02080
G0 F9000 X82.500 Y81.000
G1 F1200 X140.500 Y81.000 E602.98080
G1 X140.500 Y142.000 E610.30080
G1 X82.500 Y142.000 E617.26080
G1 X82.500 Y81.000 E624.58080
G0 F9000 X82.100 Y80.600
G1 F1200 X140.900 Y80.600 E631.63680
G1 X140.900 Y142.400 E639.05280
G1 X82.100 Y142.400 E646.10880
G1 X82.100 Y80.600 E653.52480
G0 F9000 X81.700 Y80.200
G1 F1200 X141.300 Y80.200 E660.67680
G1 X141.300 Y142.800 E668.18880
G1 X81.700 Y142.800 E675.34080
G1 X81.700 Y80.200 E682.85280
G0 F9000 X81.300 Y79.800
G1 F1200 X141.700 Y79.800 E690.10080
G1 X141.700 Y143.200 E697.70880
G1 X81.300 Y143.200 E704.95680
G1 X81.300 Y79.800 E712.56480
G0 F9000 X80.900 Y79.400
G1 F1200 X142.100 Y79.400 E719.90880
G1 X142.100 Y143.600 E727.61280
G1 X80.900 Y143.600 E734.95680
G1 X80.900 Y79.400 E742.66080
G0 F9000 X80.500 Y79.000
G1 F1200 X142.500 Y79.000 E750.10080
G1 X142.500 Y144.000 E757.90080
G1 X80.500 Y144.000 E765.34080
G1 X80.500 Y79.000 E773.14080
G0 F9000 X80.100 Y78.600
G1 F1200 X142.900 Y78.600 E780.67680
G1 X142.900 Y144.400 E788.57280
G1 X80.100 Y144.400 E796.10880
G1 X80.100 Y78.600 E804.00480
G0 F9000 X79.700 Y78.200
G1 F1200 X143.300 Y78.200 E811.63680
G1 X143.300 Y144.800 E819.62880
G1 X79.700 Y144.800 E827.26080
G1 X79.700 Y78.200 E835.25280
G10
G0 F9000 X88.100 Y86.600
;TYPE:WALL-INNER
G11
G1 F1200 X134.900 Y86.600 E840.86880
G1 X134.900 Y136.400 E846.84480
G1 X88.100 Y136.400 E852.46080
G1 X88.100 Y86.600 E858.43680
G0 F9000 X92.898 Y91.397
G1 F1200 X92.898 Y131.603 E863.26152
G1 X130.103 Y131.603 E867.72612
G1 X130.103 Y91.397 E872.55084
G1 X92.898 Y91.397 E877.01544
G0 F9000 X93.298 Y91.797
;TYPE:WALL-OUTER
G1 F1200 X93.298 Y131.203 E881.74416
G1 X129.703 Y131.203 E886.11276
G1 X129.703 Y91.797 E890.84148
G1 X93.298 Y91.797 E895.21008
G0 F9000 X93.298 Y91.497
G0 X88.000 Y86.410
G0 X87.700 Y86.200
G1 F1200 X135.300 Y86.200 E900.92208
G1 X135.300 Y136.800 E906.99408
G1 X87.700 Y136.800 E912.70608
G1 X87.700 Y86.200 E918.77808
G0 F9000 X88.239 Y86.824
;TYPE:SKIN
G1 F900 X92.758 Y91.344 E919.54506
G0 F9000 X93.236 Y91.257
G1 F900 X88.719 Y86.740 E920.31162
G0 F9000 X89.285 Y86.740
G1 F900 X93.802 Y91.257 E921.07819
G0 F9000 X94.368 Y91.257
G1 F900 X89.851 Y86.740 E921.84475
G0 F9000 X90.417 Y86.740
G1 F900 X94.934 Y91.257 E922.61131
G0 F9000 X95.499 Y91.257
G1 F900 X90.982 Y86.740 E923.37787
G0 F9000 X91.548 Y86.740
G1 F900 X96.065 Y91.257 E924.14443
G0 F9000 X96.631 Y91.257
G1 F900 X92.114 Y86.740 E924.91099
G0 F9000 X92.679 Y86.740
G1 F900 X97.196 Y91.257 E925.67755
G0 F9000 X97.762 Y91.257
G1 F900 X93.245 Y86.740 E926.44411
G0 F9000 X93.811 Y86.740
G1 F900 X98.328 Y91.257 E927.21067
G0 F9000 X98.893 Y91.257
G1 F900 X94.376 Y86.740 E927.97723
G0 F9000 X94.942 Y86.740
G1 F900 X99.459 Y91.257 E928.74379
G0 F9000 X100.025 Y91.257
G1 F900 X95.508 Y86.740 E929.51035
G0 F9000 X96.073 Y86.740
G1 F900 X100.590 Y91.257 E930.27691
G0 F9000 X101.156 Y91.257
G1 F900 X96.639 Y86.740 E931.04347
G0 F9000 X97.205 Y86.740
G1 F900 X101.722 Y91.257 E931.81003
G0 F9000 X102.287 Y91.257
G1 F900 X97.770 Y86.740 E932.57659
G0 F9000 X98.336 Y86.740
G1 F900 X102.853 Y91.257 E933.34315
G0 F9000 X103.419 Y91.257
G1 F900 X98.902 Y86.740 E934.10971
G0 F9000 X99.468 Y86.740
G1 F900 X103.985 Y91.257 E934.87627
G0 F9000 X104.550 Y91.257
G1 F900 X100.033 Y86.740 E935.64283
G0 F9000 X100.599 Y86.740
G1 F900 X105.116 Y91.257 E936.40939
G0 F9000 X105.682 Y91.257
G1 F900 X101.165 Y86.740 E937.17595
G0 F9000 X101.730 Y86.740
G1 F900 X106.247 Y91.257 E937.94251
G0 F9000 X106.813 Y91.257
G1 F900 X102.296 Y86.740 E938.70907
G0 F9000 X102.862 Y86.740
G1 F900 X107.379 Y91.257 E939.47563
G0 F9000 X107.944 Y91.257
G1 F900 X103.427 Y86.740 E940.24219
G0 F9000 X103.993 Y86.740
G1 F900 X108.510 Y91.257 E941.00875
G0 F9000 X109.076 Y91.257
G1 F900 X104.559 Y86.740 E941.77531
G0 F9000 X105.124 Y86.740
G1 F900 X109.641 Y91.257 E942.54187
G0 F9000 X110.207 Y91.257
G1 F900 X105.690 Y86.740 E943.30843
G0 F9000 X106.256 Y86.740
G1 F900 X110.773 Y91.257 E944.07499
G0 F9000 X111.338 Y91.257
G1 F900 X106.821 Y86.740 E944.84156
G0 F9000 X107.387 Y86.740
G1 F900 X111.904 Y91.257 E945.60812
G0 F9000 X112.470 Y91.257
G1 F900 X107.953 Y86.740 E946.37468
G0 F9000 X108.518 Y86.740
G1 F900 X113.035 Y91.257 E947.14124
G0 F9000 X113.601 Y91.257
G1 F900 X109.084 Y86.740 E947.90780
G0 F9000 X109.650 Y86.740
G1 F900 X114.167 Y91.257 E948.67436
G0 F9000 X114.733 Y91.257
G1 F900 X110.216 Y86.740 E949.44092
G0 F9000 X110.781 Y86.740
G1 F900 X115.298 Y91.257 E950.20748
G0 F9000 X115.864 Y91.257
G1 F900 X111.347 Y86.740 E950.97404
G0 F9000 X111.913 Y86.740
G1 F900 X116.430 Y91.257 E951.74060
G0 F9000 X116.995 Y91.257
G1 F900 X112.478 Y86.740 E952.50716
G0 F9000 X113.044 Y86.740
G1 F900 X117.561 Y91.257 E953.27372
G0 F9000 X118.127 Y91.257
G1 F900 X113.610 Y86.740 E954.04028
G0 F9000 X114.175 Y86.740
G1 F900 X118.692 Y91.257 E954.80684
G0 F9000 X119.258 Y91.257
G1 F900 X114.741 Y86.740 E955.57340
G0 F9000 X115.307 Y86.740
G1 F900 X119.824 Y91.257 E956.33996
G0 F9000 X120.389 Y91.257
G1 F900 X115.872 Y86.740 E957.10652
G0 F9000 X116.438 Y86.740
G1 F900 X120.955 Y91.257 E957.87308
G0 F9000 X121.521 Y91.257
G1 F900 X117.004 Y86.740 E958.63964
G0 F9000 X117.569 Y86.740
G1 F900 X122.086 Y91.257 E959.40620
G0 F9000 X122.652 Y91.257
G1 F900 X118.135 Y86.740 E960.17276
G0 F9000 X118.701 Y86.740
G1 F900 X123.218 Y91.257 E960.93932
G0 F9000 X123.783 Y91.257
G1 F900 X119.266 Y86.740 E961.70588
G0 F9000 X119.832 Y86.740
G1 F900 X124.349 Y91.257 E962.47244
G0 F9000 X124.915 Y91.257
G1 F900 X120.398 Y86.740 E963.23900
G0 F9000 X120.964 Y86.740
G1 F900 X125.481 Y91.257 E964.00556
G0 F9000 X126.046 Y91.257
G1 F900 X121.529 Y86.740 E964.77212
G0 F9000 X122.095 Y86.740
G1 F900 X126.612 Y91.257 E965.53868
G0 F9000 X127.178 Y91.257
G1 F900 X122.661 Y86.740 E966.30524
G0 F9000 X123.226 Y86.740
G1 F900 X127.743 Y91.257 E967.07180
G0 F9000 X128.309 Y91.257
G1 F900 X123.792 Y86.740 E967.83836
G0 F9000 X124.358 Y86.740
G1 F900 X128.875 Y91.257 E968.60493
G0 F9000 X129.440 Y91.257
G1 F900 X124.923 Y86.740 E969.37149
G0 F9000 X125.489 Y86.740
G1 F900 X130.006 Y91.257 E970.13805
G0 F9000 X130.242 Y91.493
G1 F900 X134.760 Y96.010 E970.90469
G0 F9000 X134.760 Y95.445
G1 F900 X126.055 Y86.740 E972.38198
G0 F9000 X126.620 Y86.740
G1 F900 X134.760 Y94.879 E973.76330
G0 F9000 X134.760 Y94.313
G1 F900 X127.186 Y86.740 E975.04856
G0 F9000 X127.752 Y86.740
G1 F900 X134.760 Y93.748 E976.23786
G0 F9000 X134.760 Y93.182
G1 F900 X128.317 Y86.740 E977.33119
G0 F9000 X128.883 Y86.740
G1 F900 X134.760 Y92.616 E978.32846
G0 F9000 X134.760 Y92.051
G1 F900 X129.449 Y86.740 E979.22977
G0 F9000 X130.015 Y86.740
G1 F900 X134.760 Y91.485 E980.03502
G0 F9000 X134.760 Y90.919
G1 F900 X130.580 Y86.740 E980.74431
G0 F9000 X131.146 Y86.740
G1 F900 X134.760 Y90.354 E981.35762
G0 F9000 X134.760 Y89.788
G1 F900 X131.712 Y86.740 E981.87489
G0 F9000 X132.277 Y86.740
G1 F900 X134.760 Y89.222 E982.29618
G0 F9000 X134.760 Y88.657
G1 F900 X132.843 Y86.740 E982.62151
G0 F9000 X133.409 Y86.740
G1 F900 X134.760 Y88.091 E982.85078
G0 F9000 X134.760 Y87.525
G1 F900 X133.974 Y86.740 E982.98408
G0 F9000 X134.540 Y86.740
G1 F900 X134.760 Y86.959 E983.02133
G0 F9000 X130.242 Y92.058
G1 F900 X134.760 Y96.576 E983.78806
G0 F9000 X134.760 Y97.142
G1 F900 X130.242 Y92.624 E984.55479
G0 F9000 X130.242 Y93.190
G1 F900 X134.760 Y97.708 E985.32152
G0 F9000 X134.760 Y98.273
G1 F900 X130.242 Y93.755 E986.08825
G0 F9000 X130.242 Y94.321
G1 F900 X134.760 Y98.839 E986.85498
G0 F9000 X134.760 Y99.405
G1 F900 X130.242 Y94.887 E987.62171
G0 F9000 X130.242 Y95.453
G1 F900 X134.760 Y99.970 E988.38836
G0 F9000 X134.760 Y100.536
G1 F900 X130.242 Y96.018 E989.15509
G0 F9000 X130.242 Y96.584
G1 F900 X134.760 Y101.102 E989.92182
G0 F9000 X134.760 Y101.667
G1 F900 X130.242 Y97.150 E990.68846
G0 F9000 X130.242 Y97.715
G1 F900 X134.760 Y102.233 E991.45519
G0 F9000 X134.760 Y102.799
G1 F900 X130.242 Y98.281 E992.22192
G0 F9000 X130.242 Y98.847
G1 F900 X134.760 Y103.364 E992.98857
G0 F9000 X134.760 Y103.930
G1 F900 X130.242 Y99.412 E993.75530
G0 F9000 X130.242 Y99.978
G1 F900 X134.760 Y104.496 E994.52203
G0 F9000 X134.760 Y105.061
G1 F900 X130.242 Y100.544 E995.28867
G0 F9000 X130.242 Y101.109
G1 F900 X134.760 Y105.627 E996.05540
G0 F9000 X134.760 Y106.193
G1 F900 X130.242 Y101.675 E996.82213
G0 F9000 X130.242 Y102.241
G1 F900 X134.760 Y106.758 E997.58878
G0 F9000 X134.760 Y107.324
G1 F900 X130.242 Y102.806 E998.35551
G0 F9000 X130.242 Y103.372
G1 F900 X134.760 Y107.890 E999.12224
G0 F9000 X134.760 Y108.456
G1 F900 X130.242 Y103.938 E999.88897
G0 F9000 X130.242 Y104.504
G1 F900 X134.760 Y109.021 E1000.65561
G0 F9000 X134.760 Y109.587
G1 F900 X130.242 Y105.069 E1001.42234
G0 F9000 X130.242 Y105.635
G1 F900 X134.760 Y110.153 E1002.18907
G0 F9000 X134.760 Y110.718
G1 F900 X130.242 Y106.201 E1002.95572
G0 F9000 X130.242 Y106.766
G1 F900 X134.760 Y111.284 E1003.72245
G0 F9000 X134.760 Y111.850
G1 F900 X130.242 Y107.332 E1004.48918
G0 F9000 X130.242 Y107.898
G1 F900 X134.760 Y112.415 E1005.25583
G0 F9000 X134.760 Y112.981
G1 F900 X130.242 Y108.463 E1006.02256
G0 F9000 X130.242 Y109.029
G1 F900 X134.760 Y113.547 E1006.78929
G0 F9000 X134.760 Y114.112
G1 F900 X130.242 Y109.595 E1007.55593
G0 F9000 X130.242 Y110.160
G1 F900 X134.760 Y114.678 E1008.32266
G0 F9000 X134.760 Y115.244
G1 F900 X130.242 Y110.726 E1009.08939
G0 F9000 X130.242 Y111.292
G1 F900 X134.760 Y115.809 E1009.85604
G0 F9000 X134.760 Y116.375
G1 F900 X130.242 Y111.857 E1010.62277
G0 F9000 X130.242 Y112.423
G1 F900 X134.760 Y116.941 E1011.38950
G0 F9000 X134.760 Y117.507
G1 F900 X130.242 Y112.989 E1012.15623
G0 F9000 X130.242 Y113.554
G1 F900 X134.760 Y118.072 E1012.92296
G0 F9000 X134.760 Y118.638
G1 F900 X130.242 Y114.120 E1013.68969
G0 F9000 X130.242 Y114.686
G1 F900 X134.760 Y119.204 E1014.45642
G0 F9000 X134.760 Y119.769
G1 F900 X130.242 Y115.252 E1015.22306
G0 F9000 X130.242 Y115.817
G1 F900 X134.760 Y120.335 E1015.98979
G0 F9000 X134.760 Y120.901
G1 F900 X130.242 Y116.383 E1016.75652
G0 F9000 X130.242 Y116.949
G1 F900 X134.760 Y121.466 E1017.52317
G0 F9000 X134.760 Y122.032
G1 F900 X130.242 Y117.514 E1018.28990
G0 F9000 X130.242 Y118.080
G1 F900 X134.760 Y122.598 E1019.05663
G0 F9000 X134.760 Y123.163
G1 F900 X130.242 Y118.646 E1019.82327
G0 F9000 X130.242 Y119.211
G1 F900 X134.760 Y123.729 E1020.59000
G0 F9000 X134.760 Y124.295
G1 F900 X130.242 Y119.777 E1021.35673
G0 F9000 X130.242 Y120.343
G1 F900 X134.760 Y124.860 E1022.12338
G0 F9000 X134.760 Y125.426
G1 F900 X130.242 Y120.908 E1022.89011
G0 F9000 X130.242 Y121.474
G1 F900 X134.760 Y125.992 E1023.65684
G0 F9000 X134.760 Y126.557
G1 F900 X130.242 Y122.040 E1024.42348
G0 F9000 X130.242 Y122.605
G1 F900 X134.760 Y127.123 E1025.19021
G0 F9000 X134.760 Y127.689
G1 F900 X130.242 Y123.171 E1025.95694
G0 F9000 X130.242 Y123.737
G1 F900 X134.760 Y128.255 E1026.72367
G0 F9000 X134.760 Y128.820
G1 F900 X130.242 Y124.303 E1027.49032
G0 F9000 X130.242 Y124.868
