;FLAVOR:UltiGCode
;TIME:7262
;MATERIAL:10407
;MATERIAL2:0
;NOZZLE_DIAMETER:0.000000
;NOZZLE_DIAMETER2:0.000000

;Layer count: 198
;LAYER:0
M107
G0 F9000 X94.819 Y100.318 Z0.300
;TYPE:SKIRT
G1 F1200 X94.819 Y107.725 E0.88884
G1 X102.224 Y107.725 E1.77744
G1 X102.224 Y100.318 E2.66628
G1 X94.819 Y100.318 E3.55488
G0 F9000 X94.419 Y99.918
G1 F1200 X94.419 Y108.125 E4.53972
G1 X102.624 Y108.125 E5.52432
G1 X102.624 Y99.918 E6.50916
G1 X94.419 Y99.918 E7.49376
G0 F9000 X94.019 Y99.518
G1 F1200 X94.019 Y108.525 E8.57460
G1 X103.024 Y108.525 E9.65520
G1 X103.024 Y99.518 E10.73604
G1 X94.019 Y99.518 E11.81664
G0 F9000 X93.619 Y99.118
G1 F1200 X93.619 Y108.925 E12.99348
G1 X103.424 Y108.925 E14.17008
G1 X103.424 Y99.118 E15.34692
G1 X93.619 Y99.118 E16.52352
G0 F9000 X93.219 Y98.718
G1 F1200 X93.219 Y109.325 E17.79636
G1 X103.824 Y109.325 E19.06896
G1 X103.824 Y98.718 E20.34180
G1 X93.219 Y98.718 E21.61440
G0 F9000 X92.819 Y98.318
G1 F1200 X92.819 Y109.725 E22.98324
G1 X104.224 Y109.725 E24.35184
G1 X104.224 Y98.318 E25.72068
G1 X92.819 Y98.318 E27.08928
G0 F9000 X92.419 Y97.918
G1 F1200 X92.419 Y110.125 E28.55412
G1 X104.624 Y110.125 E30.01872
G1 X104.624 Y97.918 E31.48356
G1 X92.419 Y97.918 E32.94816
G0 F9000 X92.019 Y97.518
G1 F1200 X92.019 Y110.525 E34.50900
G1 X105.024 Y110.525 E36.06960
G1 X105.024 Y97.518 E37.63044
G1 X92.019 Y97.518 E39.19104
G0 F9000 X91.619 Y97.118
G1 F1200 X91.619 Y110.925 E40.84788
G1 X105.424 Y110.925 E42.50448
G1 X105.424 Y97.118 E44.16132
G1 X91.619 Y97.118 E45.81792
G0 F9000 X91.219 Y96.718
G1 F1200 X91.219 Y111.325 E47.57076
G1 X105.824 Y111.325 E49.32336
G1 X105.824 Y96.718 E51.07620
G1 X91.219 Y96.718 E52.82880
G0 F9000 X90.819 Y96.318
G1 F1200 X90.819 Y111.725 E54.67764
G1 X106.224 Y111.725 E56.52624
G1 X106.224 Y96.318 E58.37508
G1 X90.819 Y96.318 E60.22368
G0 F9000 X90.419 Y95.918
G1 F1200 X90.419 Y112.125 E62.16852
G1 X106.624 Y112.125 E64.11312
G1 X106.624 Y95.918 E66.05796
G1 X90.419 Y95.918 E68.00256
G0 F9000 X90.019 Y95.518
G1 F1200 X90.019 Y112.525 E70.04340
G1 X107.024 Y112.525 E72.08400
G1 X107.024 Y95.518 E74.12484
G1 X90.019 Y95.518 E76.16544
G0 F9000 X89.619 Y95.118
G1 F1200 X89.619 Y112.925 E78.30228
G1 X107.424 Y112.925 E80.43888
G1 X107.424 Y95.118 E82.57572
G1 X89.619 Y95.118 E84.71232
G0 F9000 X89.219 Y94.718
G1 F1200 X89.219 Y113.325 E86.94516
G1 X107.824 Y113.325 E89.17776
G1 X107.824 Y94.718 E91.41060
G1 X89.219 Y94.718 E93.64320
G0 F9000 X88.819 Y94.318
G1 F1200 X88.819 Y113.725 E95.97204
G1 X108.224 Y113.725 E98.30064
G1 X108.224 Y94.318 E100.62948
G1 X88.819 Y94.318 E102.95808
G0 F9000 X88.419 Y93.918
G1 F1200 X88.419 Y114.125 E105.38292
G1 X108.624 Y114.125 E107.80752
G1 X108.624 Y93.918 E110.23236
G1 X88.419 Y93.918 E112.65696
G0 F9000 X88.019 Y93.518
G1 F1200 X88.019 Y114.525 E115.17780
G1 X109.024 Y114.525 E117.69840
G1 X109.024 Y93.518 E120.21924
G1 X88.019 Y93.518 E122.73984
G0 F9000 X87.619 Y93.118
G1 F1200 X87.619 Y114.925 E125.35668
G1 X109.424 Y114.925 E127.97328
G1 X109.424 Y93.118 E130.59012
G1 X87.619 Y93.118 E133.20672
G0 F9000 X87.219 Y92.718
G1 F1200 X87.219 Y115.325 E135.91956
G1 X109.824 Y115.325 E138.63216
G1 X109.824 Y92.718 E141.34500
G1 X87.219 Y92.718 E144.05760
G0 F9000 X84.219 Y84.325
G1 F1200 X111.825 Y84.325 E147.37032
G1 X111.825 Y80.322 E147.85068
G1 X119.222 Y80.322 E148.73832
G1 X119.222 Y125.722 E154.18632
G1 X111.825 Y125.722 E155.07396
G1 X111.825 Y121.718 E155.55444
G1 X84.219 Y121.718 E158.86716
G1 X84.219 Y125.722 E159.34764
G1 X76.820 Y125.722 E160.23552
G1 X76.820 Y80.322 E165.68352
G1 X84.219 Y80.322 E166.57140
G1 X84.219 Y84.325 E167.05176
G0 F9000 X84.619 Y83.925
G1 F1200 X111.425 Y83.925 E170.26848
G1 X111.425 Y79.922 E170.74884
G1 X119.622 Y79.922 E171.73248
G1 X119.622 Y126.122 E177.27648
G1 X111.425 Y126.122 E178.26012
G1 X111.425 Y122.118 E178.74060
G1 X84.619 Y122.118 E181.95732
G1 X84.619 Y126.122 E182.43780
G1 X76.420 Y126.122 E183.42168
G1 X76.420 Y79.922 E188.96568
G1 X84.619 Y79.922 E189.94956
G1 X84.619 Y83.925 E190.42992
G0 F9000 X85.019 Y83.525
G1 F1200 X111.025 Y83.525 E193.55064
G1 X111.025 Y79.522 E194.03100
G1 X120.022 Y79.522 E195.11064
G1 X120.022 Y126.522 E200.75064
G1 X111.025 Y126.522 E201.83028
G1 X111.025 Y122.518 E202.31076
G1 X85.019 Y122.518 E205.43148
G1 X85.019 Y126.522 E205.91196
G1 X76.020 Y126.522 E206.99184
G1 X76.020 Y79.522 E212.63184
G1 X85.019 Y79.522 E213.71172
G1 X85.019 Y83.525 E214.19208
G0 F9000 X85.419 Y83.125
G1 F1200 X110.625 Y83.125 E217.21680
G1 X110.625 Y79.122 E217.69716
G1 X120.422 Y79.122 E218.87280
G1 X120.422 Y126.922 E224.60880
G1 X110.625 Y126.922 E225.78444
G1 X110.625 Y122.918 E226.26492
G1 X85.419 Y122.918 E229.28964
G1 X85.419 Y126.922 E229.77012
G1 X75.620 Y126.922 E230.94600
G1 X75.620 Y79.122 E236.68200
G1 X85.419 Y79.122 E237.85788
G1 X85.419 Y83.125 E238.33824
G0 F9000 X85.819 Y82.725
G1 F1200 X110.225 Y82.725 E241.26696
G1 X110.225 Y78.722 E241.74732
G1 X120.822 Y78.722 E243.01896
G1 X120.822 Y127.322 E248.85096
G1 X110.225 Y127.322 E250.12260
G1 X110.225 Y123.318 E250.60308
G1 X85.819 Y123.318 E253.53180
G1 X85.819 Y127.322 E254.01228
G1 X75.220 Y127.322 E255.28416
G1 X75.220 Y78.722 E261.11616
G1 X85.819 Y78.722 E262.38804
G1 X85.819 Y82.725 E262.86840
G0 F9000 X86.219 Y82.325
G1 F1200 X109.825 Y82.325 E265.70112
G1 X109.825 Y78.322 E266.18148
G1 X121.222 Y78.322 E267.54912
G1 X121.222 Y127.722 E273.47712
G1 X109.825 Y127.722 E274.84476
G1 X109.825 Y123.718 E275.32524
G1 X86.219 Y123.718 E278.15796
G1 X86.219 Y127.722 E278.63844
G1 X74.820 Y127.722 E280.00632
G1 X74.820 Y78.322 E285.93432
G1 X86.219 Y78.322 E287.30220
G1 X86.219 Y82.325 E287.78256
G0 F9000 X86.619 Y81.925
G1 F1200 X109.425 Y81.925 E290.51928
G1 X109.425 Y77.922 E290.99964
G1 X121.622 Y77.922 E292.46328
G1 X121.622 Y128.122 E298.48728
G1 X109.425 Y128.122 E299.95092
G1 X109.425 Y124.118 E300.43140
G1 X86.619 Y124.118 E303.16812
G1 X86.619 Y128.122 E303.64860
G1 X74.420 Y128.122 E305.11248
G1 X74.420 Y77.922 E311.13648
G1 X86.619 Y77.922 E312.60036
G1 X86.619 Y81.925 E313.08072
G0 F9000 X87.019 Y81.525
G1 F1200 X109.025 Y81.525 E315.72144
G1 X109.025 Y77.522 E316.20180
G1 X122.022 Y77.522 E317.76144
G1 X122.022 Y128.522 E323.88144
G1 X109.025 Y128.522 E325.44108
G1 X109.025 Y124.518 E325.92156
G1 X87.019 Y124.518 E328.56228
G1 X87.019 Y128.522 E329.04276
G1 X74.020 Y128.522 E330.60264
G1 X74.020 Y77.522 E336.72264
G1 X87.019 Y77.522 E338.28252
G1 X87.019 Y81.525 E338.76288
G0 F9000 X87.419 Y81.125
G1 F1200 X108.625 Y81.125 E341.30760
G1 X108.625 Y77.122 E341.78796
G1 X122.422 Y77.122 E343.44360
G1 X122.422 Y128.922 E349.65960
G1 X108.625 Y128.922 E351.31524
G1 X108.625 Y124.918 E351.79572
G1 X87.419 Y124.918 E354.34044
G1 X87.419 Y128.922 E354.82092
G1 X73.620 Y128.922 E356.47680
G1 X73.620 Y77.122 E362.69280
G1 X87.419 Y77.122 E364.34868
G1 X87.419 Y81.125 E364.82904
G0 F9000 X87.819 Y80.725
G1 F1200 X108.225 Y80.725 E367.27776
G1 X108.225 Y76.722 E367.75812
G1 X122.822 Y76.722 E369.50976
G1 X122.822 Y129.322 E375.82176
G1 X108.225 Y129.322 E377.57340
G1 X108.225 Y125.318 E378.05388
G1 X87.819 Y125.318 E380.50260
G1 X87.819 Y129.322 E380.98308
G1 X73.220 Y129.322 E382.73496
G1 X73.220 Y76.722 E389.04696
G1 X87.819 Y76.722 E390.79884
G1 X87.819 Y80.725 E391.27920
G0 F9000 X88.219 Y80.325
G1 F1200 X107.825 Y80.325 E393.63192
G1 X107.825 Y76.322 E394.11228
G1 X123.222 Y76.322 E395.95992
G1 X123.222 Y129.722 E402.36792
G1 X107.825 Y129.722 E404.21556
G1 X107.825 Y125.718 E404.69604
G1 X88.219 Y125.718 E407.04876
G1 X88.219 Y129.722 E407.52924
G1 X72.820 Y129.722 E409.37712
G1 X72.820 Y76.322 E415.78512
G1 X88.219 Y76.322 E417.63300
G1 X88.219 Y80.325 E418.11336
G0 F9000 X88.619 Y79.925
G1 F1200 X107.425 Y79.925 E420.37008
G1 X107.425 Y75.922 E420.85044
G1 X123.622 Y75.922 E422.79408
G1 X123.622 Y130.122 E429.29808
G1 X107.425 Y130.122 E431.24172
G1 X107.425 Y126.118 E431.72220
G1 X88.619 Y126.118 E433.97892
G1 X88.619 Y130.122 E434.45940
G1 X72.420 Y130.122 E436.40328
G1 X72.420 Y75.922 E442.90728
G1 X88.619 Y75.922 E444.85116
G1 X88.619 Y79.925 E445.33152
G0 F9000 X89.019 Y79.525
G1 F1200 X107.025 Y79.525 E447.49224
G1 X107.025 Y75.522 E447.97260
G1 X124.022 Y75.522 E450.01224
G1 X124.022 Y130.522 E456.61224
G1 X107.025 Y130.522 E458.65188
G1 X107.025 Y126.518 E459.13236
G1 X89.019 Y126.518 E461.29308
G1 X89.019 Y130.522 E461.77356
G1 X72.020 Y130.522 E463.81344
G1 X72.020 Y75.522 E470.41344
G1 X89.019 Y75.522 E472.45332
G1 X89.019 Y79.525 E472.93368
G0 F9000 X89.419 Y79.125
G1 F1200 X106.625 Y79.125 E474.99840
G1 X106.625 Y75.122 E475.47876
G1 X124.422 Y75.122 E477.61440
G1 X124.422 Y130.922 E484.31040
G1 X106.625 Y130.922 E486.44604
G1 X106.625 Y126.918 E486.92652
G1 X89.419 Y126.918 E488.99124
G1 X89.419 Y130.922 E489.47172
G1 X71.620 Y130.922 E491.60760
G1 X71.620 Y75.122 E498.30360
G1 X89.419 Y75.122 E500.43948
G1 X89.419 Y79.125 E500.91984
G0 F9000 X89.819 Y78.725
G1 F1200 X106.225 Y78.725 E502.88856
G1 X106.225 Y74.722 E503.36892
G1 X124.822 Y74.722 E505.60056
G1 X124.822 Y131.322 E512.39256
G1 X106.225 Y131.322 E514.62420
G1 X106.225 Y127.318 E515.10468
G1 X89.819 Y127.318 E517.07340
G1 X89.819 Y131.322 E517.55388
G1 X71.220 Y131.322 E519.78576
G1 X71.220 Y74.722 E526.57776
G1 X89.819 Y74.722 E528.80964
G1 X89.819 Y78.725 E529.29000
G0 F9000 X90.219 Y78.325
G1 F1200 X105.825 Y78.325 E531.16272
G1 X105.825 Y74.322 E531.64308
G1 X125.222 Y74.322 E533.97072
G1 X125.222 Y131.722 E540.85872
G1 X105.825 Y131.722 E543.18636
G1 X105.825 Y127.718 E543.66684
G1 X90.219 Y127.718 E545.53956
G1 X90.219 Y131.722 E546.02004
G1 X70.820 Y131.722 E548.34792
G1 X70.820 Y74.322 E555.23592
G1 X90.219 Y74.322 E557.56380
G1 X90.219 Y78.325 E558.04416
G0 F9000 X90.619 Y77.925
G1 F1200 X105.425 Y77.925 E559.82088
G1 X105.425 Y73.922 E560.30124
G1 X125.622 Y73.922 E562.72488
G1 X125.622 Y132.122 E569.70888
G1 X105.425 Y132.122 E572.13252
G1 X105.425 Y128.118 E572.61300
G1 X90.619 Y128.118 E574.38972
G1 X90.619 Y132.122 E574.87020
G1 X70.420 Y132.122 E577.29408
G1 X70.420 Y73.922 E584.27808
G1 X90.619 Y73.922 E586.70196
G1 X90.619 Y77.925 E587.18232
G0 F9000 X91.019 Y77.525
G1 F1200 X105.025 Y77.525 E588.86304
G1 X105.025 Y73.522 E589.34340
G1 X126.022 Y73.522 E591.86304
G1 X126.022 Y132.522 E598.94304
G1 X105.025 Y132.522 E601.46268
G1 X105.025 Y128.518 E601.94316
G1 X91.019 Y128.518 E603.62388
G1 X91.019 Y132.522 E604.10436
G1 X70.020 Y132.522 E606.62424
G1 X70.020 Y73.522 E613.70424
G1 X91.019 Y73.522 E616.22412
G1 X91.019 Y77.525 E616.70448
G0 F9000 X91.419 Y77.125
G1 F1200 X104.625 Y77.125 E618.28920
G1 X104.625 Y73.122 E618.76956
G1 X126.422 Y73.122 E621.38520
G1 X126.422 Y132.922 E628.56120
G1 X104.625 Y132.922 E631.17684
G1 X104.625 Y128.918 E631.65732
G1 X91.419 Y128.918 E633.24204
G1 X91.419 Y132.922 E633.72252
G1 X69.620 Y132.922 E636.33840
G1 X69.620 Y73.122 E643.51440
G1 X91.419 Y73.122 E646.13028
G1 X91.419 Y77.125 E646.61064
G0 F9000 X91.819 Y76.725
G1 F1200 X104.225 Y76.725 E648.09936
G1 X104.225 Y72.722 E648.57972
G1 X126.822 Y72.722 E651.29136
G1 X126.822 Y133.322 E658.56336
G1 X104.225 Y133.322 E661.27500
G1 X104.225 Y129.318 E661.75548
G1 X91.819 Y129.318 E663.24420
G1 X91.819 Y133.322 E663.72468
G1 X69.220 Y133.322 E666.43656
G1 X69.220 Y72.722 E673.70856
G1 X91.819 Y72.722 E676.42044
G1 X91.819 Y76.725 E676.90080
G10
G0 F9000 X83.419 Y81.122
;TYPE:WALL-INNER
G11
G1 F1200 X83.419 Y85.125 E677.38116
G1 X112.625 Y85.125 E680.88588
G1 X112.625 Y81.122 E681.36624
G1 X118.422 Y81.122 E682.06188
G1 X118.422 Y124.922 E687.31788
G1 X112.625 Y124.922 E688.01352
G1 X112.625 Y120.918 E688.49400
G1 X83.419 Y120.918 E691.99872
G1 X83.419 Y124.922 E692.47920
G1 X77.620 Y124.922 E693.17508
G1 X77.620 Y81.122 E698.43108
G1 X83.419 Y81.122 E699.12696
G0 F9000 X83.478 Y85.066
G0 X86.419 Y91.918
G1 F1200 X86.419 Y116.125 E702.03180
G1 X110.624 Y116.125 E704.93640
G1 X110.624 Y91.918 E707.84124
G1 X86.419 Y91.918 E710.74584
G0 F9000 X86.819 Y92.318
;TYPE:WALL-OUTER
G1 F1200 X86.819 Y115.725 E713.55468
G1 X110.224 Y115.725 E716.36328
G1 X110.224 Y92.318 E719.17212
G1 X86.819 Y92.318 E721.98072
G0 F9000 X86.819 Y92.018
G0 X83.519 Y84.725
G0 X83.819 Y84.725
G1 F1200 X112.225 Y84.725 E725.38944
G1 X112.225 Y80.722 E725.86980
G1 X118.822 Y80.722 E726.66144
G1 X118.822 Y125.322 E732.01344
G1 X112.225 Y125.322 E732.80508
G1 X112.225 Y121.318 E733.28556
G1 X83.819 Y121.318 E736.69428
G1 X83.819 Y125.322 E737.17476
G1 X77.220 Y125.322 E737.96664
G1 X77.220 Y80.722 E743.31864
G1 X83.819 Y80.722 E744.11052
G1 X83.819 Y84.725 E744.59088
G0 F9000 X83.850 Y85.265
;TYPE:SKIN
G1 F900 X90.363 Y91.777 E745.69609
G0 F9000 X90.928 Y91.777
G1 F900 X84.416 Y85.265 E746.80121
G0 F9000 X84.982 Y85.265
G1 F900 X91.494 Y91.777 E747.90633
G0 F9000 X92.060 Y91.777
G1 F900 X85.547 Y85.265 E749.01154
G0 F9000 X86.113 Y85.265
G1 F900 X92.626 Y91.777 E750.11675
G0 F9000 X93.191 Y91.777
G1 F900 X86.679 Y85.265 E751.22187
G0 F9000 X87.244 Y85.265
G1 F900 X93.757 Y91.777 E752.32708
G0 F9000 X94.323 Y91.777
G1 F900 X87.810 Y85.265 E753.43229
G0 F9000 X88.376 Y85.265
G1 F900 X94.888 Y91.777 E754.53741
G0 F9000 X95.454 Y91.777
G1 F900 X88.942 Y85.265 E755.64253
G0 F9000 X89.507 Y85.265
G1 F900 X96.020 Y91.777 E756.74774
G0 F9000 X96.585 Y91.777
G1 F900 X90.073 Y85.265 E757.85287
G0 F9000 X90.639 Y85.265
G1 F900 X97.151 Y91.777 E758.95799
G0 F9000 X97.717 Y91.777
G1 F900 X91.204 Y85.265 E760.06320
G0 F9000 X91.770 Y85.265
G1 F900 X98.282 Y91.777 E761.16832
G0 F9000 X98.848 Y91.777
G1 F900 X92.336 Y85.265 E762.27344
G0 F9000 X92.901 Y85.265
G1 F900 X99.414 Y91.777 E763.37865
G0 F9000 X99.979 Y91.777
G1 F900 X93.467 Y85.265 E764.48377
G0 F9000 X94.033 Y85.265
G1 F900 X100.545 Y91.777 E765.58890
G0 F9000 X101.111 Y91.777
G1 F900 X94.598 Y85.265 E766.69410
G0 F9000 X95.164 Y85.265
G1 F900 X101.677 Y91.777 E767.79931
G0 F9000 X102.242 Y91.777
G1 F900 X95.730 Y85.265 E768.90444
G0 F9000 X96.295 Y85.265
G1 F900 X102.808 Y91.777 E770.00964
G0 F9000 X103.374 Y91.777
G1 F900 X96.861 Y85.265 E771.11485
G0 F9000 X97.427 Y85.265
G1 F900 X103.939 Y91.777 E772.21997
G0 F9000 X104.505 Y91.777
G1 F900 X97.992 Y85.265 E773.32518
G0 F9000 X98.558 Y85.265
G1 F900 X105.071 Y91.777 E774.43039
G0 F9000 X105.636 Y91.777
G1 F900 X99.124 Y85.265 E775.53551
G0 F9000 X99.690 Y85.265
G1 F900 X106.202 Y91.777 E776.64064
G0 F9000 X106.768 Y91.777
G1 F900 X100.255 Y85.265 E777.74584
G0 F9000 X100.821 Y85.265
G1 F900 X107.333 Y91.777 E778.85097
G0 F9000 X107.899 Y91.777
G1 F900 X101.387 Y85.265 E779.95609
G0 F9000 X101.952 Y85.265
G1 F900 X108.465 Y91.777 E781.06130
G0 F9000 X109.030 Y91.777
G1 F900 X102.518 Y85.265 E782.16642
G0 F9000 X103.084 Y85.265
G1 F900 X109.596 Y91.777 E783.27154
G0 F9000 X110.162 Y91.777
G1 F900 X103.649 Y85.265 E784.37675
G0 F9000 X104.215 Y85.265
G1 F900 X110.727 Y91.777 E785.48188
G0 F9000 X110.763 Y91.812
G1 F900 X118.281 Y99.331 E786.75781
G0 F9000 X118.281 Y99.897
G1 F900 X110.763 Y92.378 E788.03374
G0 F9000 X110.763 Y92.944
G1 F900 X118.281 Y100.462 E789.30959
G0 F9000 X118.281 Y101.028
G1 F900 X110.763 Y93.509 E790.58552
G0 F9000 X110.763 Y94.075
G1 F900 X118.281 Y101.594 E791.86145
G0 F9000 X118.281 Y102.159
G1 F900 X110.763 Y94.641 E793.13730
G0 F9000 X110.763 Y95.206
G1 F900 X118.281 Y102.725 E794.41323
G0 F9000 X118.281 Y103.291
G1 F900 X110.763 Y95.772 E795.68916
G0 F9000 X110.763 Y96.338
G1 F900 X118.281 Y103.857 E796.96509
G0 F9000 X118.281 Y104.422
G1 F900 X110.763 Y96.904 E798.24094
G0 F9000 X110.763 Y97.469
G1 F900 X118.281 Y104.988 E799.51687
G0 F9000 X118.281 Y105.554
G1 F900 X110.763 Y98.035 E800.79280
G0 F9000 X110.763 Y98.601
G1 F900 X118.281 Y106.119 E802.06865
G0 F9000 X118.281 Y106.685
G1 F900 X110.763 Y99.166 E803.34458
G0 F9000 X110.763 Y99.732
G1 F900 X118.281 Y107.251 E804.62051
G0 F9000 X118.281 Y107.816
G1 F900 X110.763 Y100.298 E805.89636
G0 F9000 X110.763 Y100.863
G1 F900 X118.281 Y108.382 E807.17229
G0 F9000 X118.281 Y108.948
G1 F900 X110.763 Y101.429 E808.44822
G0 F9000 X110.763 Y101.995
G1 F900 X118.281 Y109.513 E809.72407
G0 F9000 X118.281 Y110.079
G1 F900 X110.763 Y102.560 E811.00000
